X:80
T:Cherokee Shuffle 
C:Traditional - Arr. Sizemore
N:TablEdit by Larry Tanner
R:bluegrass
L:1/8
Q:1/4=240
M:4/4
K:A
z6 FG | "A"A2 A2 A2 AA | cB Ac BA FB | AB ce cB A2 | "F#m"F2 FA F2 E=F | "D"FA AB AF ED | 
"A"CF EF A2 AB | cB A"E"c BA GB | "A"A2 AA A2 F2 | A2 A2 A2 AB | cB AF ED CD | 
EF Ac Bc A2 | "F#m"[F2C2] [FC][FC] [F2C2] E=F | "D"FA AB AF ED | "A"CF EF A2 AB | 
cB A"E"c BA GB | "A"A2 Ae A2 a=g | "D"fd fg af ed | "A"ce ef e2 a=g | "D"fd fg af ed | 
"A"c[ec] [ec][ec] [e2c2] a=g | "D"fd fg af ed | "A"ce ef e2 af | ec cB "E"AB ce | 
"F#m"[f2c2] [fc][fc] [f2c2] af | "D"ed cA "E"BA GB | "A"A2 Ae A2 a=g | "D"fd fg af ed | 
"A"c2 f2 e2 a=g | "D"fd fg af ed | "A"ce ef e2 a=g | "D"fd fg af ed | "A"ce ef e2 af | 
ed cB "E"AB cA | "F#m"[f2c2] [fc][fc] [f2c2] a=g | "D"ed cA "E"BA GB | "A"A8 | 


